!!!SUPERFUNCTION: tribename
!!!SUPERFUNCTION: dance
!!!SOCIAL_FUNCTION:	klukluwatk dance
!!!PDT:	1939
!!!OTL: No_37_Song_of_the_Kluklukwatk_Dance_(c).krn
!!!LANG: Non-Tone
!!!LING_GROUP: Wakashan
!!!REG: Pacific Northwest
**kern	**kern
*staff2	*staff1
=1-	=1-
*clefF4	*clefF4
*k[b-e-a-d-g-]	*k[b-e-a-d-g-]
*M2/4	*M2/4
2r	4d-\
.	8d-\L
.	8c\J
=2	=2
2r	4c\
.	4r
=3	=3
2r	4d-\
.	8d-\L
.	8c\J
=4	=4
2r	4d-\
.	8c\L
.	8c\J
=5	=5
2r	4d-\
.	8c\L
.	8d-\J
=6	=6
2r	8d-\
.	8r
.	8c\L
.	8c\J
=7	=7
2r	4c\
.	8c\L
.	8d-\J
=8	=8
4r	2d-\
8FF/L	.
8FF/J	.
=9!|:	=9!|:
8FF/	4c\
8r	.
8r	8B-\L
8FF/	8c\J
=10	=10
4r	4c\
8r	4r
8FF/	.
=11	=11
8FF/	4c\
8r	.
8r	8c\L
8FF/	8B-\J
=12	=12
8FF/	4c\
8r	.
8FF/L	8B-\L
8FF/J	8B-\J
=13	=13
8FF/	4c\
8r	.
8FF/L	8B-\L
8FF/J	8B-\J
=14	=14
8FF/	8c\
8r	8r
8FF/L	8B-\L
8FF/J	8B-\J
=15	=15
8FF/	4c\
8r	.
8r	8c\L
8FF/	8d-\J
=16	=16
8FF/	2d-\
8r	.
8FF/L	.
8FF/J	.
==:|!	==:|!
*-	*-
